!!!COM: Palestrina, Giovanni Perluigi da
!!!OPR: Missa In duplicibus minoribus (II)
!!!OMD: Sanctus rpt
!!!OTL: Pleni
**kern	**kern	**kern	**kern
*Itenor	*Itenor	*Icalto	*Icant
!Tenor 2	!Tenor 1	!Altus	!Cantus
*clefGv2	*clefGv2	*clefG2	*clefG2
*k[]	*k[]	*k[]	*k[]
*E:phr	*E:phr	*E:phr	*E:phr
*M4/2	*M4/2	*M4/2	*M4/2
=29	=29	=29	=29
0r	0r	1e	0r
.	.	2d	.
.	.	2B	.
=30	=30	=30	=30
1A	0r	4c	0r
.	.	4d	.
.	.	4e	.
.	.	4f	.
2G	.	1g	.
2E	.	.	.
=31	=31	=31	=31
4F	0r	2.c	0a
4G	.	.	.
4A	.	.	.
4B	.	4d	.
2c	.	2e	.
2d	.	2f	.
=32	=32	=32	=32
2B	0r	2d	0g
2.c	.	2.e	.
4B	.	4d	.
2G	.	[2d	.
=33	=33	=33	=33
1A	2r	2d]	0e
.	2A	2c	.
2r	2G	1B	.
2e	2E	.	.
=34	=34	=34	=34
2.c	4F	4A	0a
.	4G	4B	.
.	4A	4c	.
4B	4B	4d	.
2A	2c	2e	.
2D	[2d	2f	.
=35	=35	=35	=35
0G	2d]	2g	0b
.	4G	2e	.
.	4A	.	.
.	4B	2d	.
.	4c	.	.
.	2d	2B	.
=36	=36	=36	=36
1C	2.e	4c	0g
.	.	4B	.
.	.	4c	.
.	4d	4d	.
1r	2c	4e	.
.	.	4f	.
.	2B	[2g	.
=37	=37	=37	=37
1r	2c	2g]	0a
.	1d	2f	.
1A	.	1e	.
.	2c#	.	.
=38	=38	=38	=38
2F	2.d	1.f	0a
2D	.	.	.
.	4c	.	.
4F	4A	.	.
4G	4B	.	.
4A	4c	2e	.
4B	4d	.	.
=39	=39	=39	=39
2c	2e	1r	0g
4B	4d	.	.
4A	4c	.	.
1B	1d	2r	.
.	.	2d	.
=40	=40	=40	=40
0A	1e	2c	0a
.	.	2A	.
.	2r	4c	.
.	.	4d	.
.	[2c	4e	.
.	.	4f	.
=41	=41	=41	=41
2r	4c]	2g	[0e
.	4B	.	.
2e	1A	1c	.
2A	.	.	.
2B	2G#	[2B	.
=42	=42	=42	=42
1c	1A	4B]	0e]
.	.	4A	.
.	.	1A	.
1B	1E	.	.
.	.	2G#	.
=43	=43	=43	=43
1A	0r	2A	1c
.	.	2e	.
1r	.	2f	2d
.	.	2c	2e
=44	=44	=44	=44
1r	1r	1d	1f
2r	2r	2c	[1e
2G	2B	2B	.
=45	=45	=45	=45
2A	2c	2A	1e]
2B	2G	2E	.
1c	1A	1e	1r
=46	=46	=46	=46
2B	1E	1e	2r
2B	.	.	2g
2c	1r	2r	2a
2G	.	2g	2b
=47	=47	=47	=47
1A	1r	2e	1cc
.	.	2f#	.
2G	2r	1g	2b
2G	2B	.	2dd
=48	=48	=48	=48
2A	2c	[0e	2cc
2B	2G	.	2.b
1c	1A	.	.
.	.	.	4a
.	.	.	[2a
=49	=49	=49	=49
1B	1E	0e]	2a]
.	.	.	2g#
1A	1c	.	1a
=50	=50	=50	=50
[0E	[0B	[0e	[0g#
=51	=51	=51	=51
0E]	0B]	0e]	0g#]
*-	*-	*-	*-
!!!CDT: 1525/^1526/-1594/2/2
!!!OCY: Italia
!!!AGN: Mass (Paraphrase)
!!!AST: renaissance, vocal
!!!ASW: Gregorian Mass
!!!PWK: Masses, Book Mantuan I
!!!RNB: Cadence finals: A
!!!YOR: Le Opere Complete, v. 18, p. 1
!!!YOO: Rome, Italy: Fratelli Scalera
!!!END: 1992//
!!!EED: John Miller
!!!YEC: Copyright 2000, John Miller
!!!YEN: United States of America
!!!YEM: Rights to all derivative electronic formats reserved.
!!!YEM: Refer to licensing agreement for further details.
!!!YEM: This file must be accompanied by the licensing agreement.
!!!YEM: A copy of the licensing agreement may be found at http://www.music-cog.ohio-state.edu/HumdrumDatabases/Palestrina/license.txt
!!!EMD: converted to Humdrum by Bret Aarden
